images/icons/info.svg

<?xml version="1.0" encoding="UTF-8"?>
<!DOCTYPE svg PUBLIC "-//W3C//DTD SVG 1.1//EN" "http://www.w3.org/Graphics/SVG/1.1/DTD/svg11.dtd">
<!-- Creator: CorelDRAW 2018 (64-Bit) -->
<svg xmlns="http://www.w3.org/2000/svg" xml:space="preserve" width="2.5777mm" height="2.5777mm" version="1.1" style="shape-rendering:geometricPrecision; text-rendering:geometricPrecision; image-rendering:optimizeQuality; fill-rule:evenodd; clip-rule:evenodd"
viewBox="0 0 0.86 0.86"
 xmlns:xlink="http://www.w3.org/1999/xlink">
 <defs>
  <style type="text/css">
   <![CDATA[
    .fil0 {fill:#5E5E5E;fill-rule:nonzero}
   ]]>
  </style>
 </defs>
 <g id="Layer_x0020_1">
  <metadata id="CorelCorpID_0Corel-Layer"/>
  <path class="fil0" d="M0.85 0.43l-0.01 0c0,0.11 -0.05,0.21 -0.12,0.29 -0.07,0.07 -0.18,0.12 -0.29,0.12 -0.11,0 -0.21,-0.05 -0.29,-0.12 -0.07,-0.07 -0.12,-0.18 -0.12,-0.29 0,-0.11 0.05,-0.21 0.12,-0.29 0.07,-0.07 0.18,-0.12 0.29,-0.12 0.11,0 0.21,0.05 0.29,0.12 0.07,0.07 0.12,0.18 0.12,0.29l0.02 0c0,-0.24 -0.19,-0.43 -0.43,-0.43 -0.24,0 -0.43,0.19 -0.43,0.43l0 0c0,0.24 0.19,0.43 0.43,0.43 0.24,0 0.43,-0.19 0.43,-0.43l-0.01 0z"/>
  <path class="fil0" d="M0.37 0.44l0 0.2c0,0.01 0,0.03 -0,0.04 -0,0.01 -0.02,0.02 -0.04,0.02l0 0.03 0.22 0 0 -0.03c-0.02,-0 -0.04,-0.01 -0.04,-0.02 -0,-0.01 -0,-0.02 -0,-0.04l0 -0.33 -0 -0c-0.04,0.02 -0.12,0.03 -0.17,0.03l0 0.03c0.04,0 0.05,0.02 0.05,0.07zm-0.03 -0.23c0,0.04 0.03,0.08 0.08,0.08 0.05,0 0.08,-0.04 0.08,-0.08 0,-0.04 -0.03,-0.08 -0.08,-0.08 -0.04,0 -0.08,0.03 -0.08,0.08z"/>
 </g>
</svg>

<svg xmlns="http://www.w3.org/2000/svg" width="9.742" height="9.742" viewBox="0 0 0.86 0.86" shape-rendering="geometricPrecision" text-rendering="geometricPrecision" image-rendering="optimizeQuality" fill-rule="evenodd" clip-rule="evenodd"><defs><style>.fil0{fill:#5e5e5e;fill-rule:nonzero}</style></defs><g id="Layer_x0020_1"><path class="fil0" d="M.85.43H.84C.84.54.79.64.72.72.65.79.54.84.43.84.32.84.22.79.14.72A.425.425 0 01.02.43C.02.32.07.22.14.14.21.07.32.02.43.02c.11 0 .21.05.29.12.07.07.12.18.12.29h.02C.86.19.67 0 .43 0S0 .19 0 .43s.19.43.43.43S.86.67.86.43H.85z"/><path class="fil0" d="M.37.44v.24C.37.69.35.7.33.7v.03h.22V.7C.53.7.51.69.51.68V.31C.47.33.39.34.34.34v.03c.04 0 .05.02.05.07zM.34.21c0 .04.03.08.08.08S.5.25.5.21.47.13.42.13C.38.13.34.16.34.21z"/></g></svg>
